src/svg/chevron-left-outline.svg

<svg version="1.2" baseProfile="tiny" xmlns="http://www.w3.org/2000/svg" width="24" height="24" viewBox="0 0 24 24"><path d="M13 20c-.802 0-1.555-.312-2.122-.879l-7.121-7.121 7.122-7.121c1.133-1.133 3.11-1.133 4.243 0 .566.566.878 1.32.878 2.121s-.312 1.555-.879 2.122l-2.878 2.878 2.878 2.879c.567.566.879 1.32.879 2.121s-.312 1.555-.879 2.122c-.566.566-1.319.878-2.121.878zm-6.415-8l5.708 5.707c.378.378 1.037.377 1.414 0 .189-.189.293-.439.293-.707s-.104-.518-.293-.707l-4.292-4.293 4.292-4.293c.189-.189.293-.44.293-.707s-.104-.518-.293-.707c-.378-.379-1.037-.378-1.414-.001l-5.708 5.708z"/></svg>

<?xml version="1.0" encoding="iso-8859-1"?>
<!-- Generator: Adobe Illustrator 16.2.1, SVG Export Plug-In . SVG Version: 6.00 Build 0)  -->
<svg version="1.2" baseProfile="tiny" id="Layer_1" xmlns="http://www.w3.org/2000/svg" xmlns:xlink="http://www.w3.org/1999/xlink"
	 x="0px" y="0px" width="24px" height="24px" viewBox="0 0 24 24" xml:space="preserve">
<g>
	<g>
		<path d="M13,20c-0.802,0-1.555-0.312-2.122-0.879L3.757,12l7.122-7.121c1.133-1.133,3.11-1.133,4.243,0
			C15.688,5.445,16,6.199,16,7s-0.312,1.555-0.879,2.122L12.243,12l2.878,2.879C15.688,15.445,16,16.199,16,17
			s-0.312,1.555-0.879,2.122C14.555,19.688,13.802,20,13,20z M6.585,12l5.708,5.707c0.378,0.378,1.037,0.377,1.414,0
			C13.896,17.518,14,17.268,14,17s-0.104-0.518-0.293-0.707L9.415,12l4.292-4.293C13.896,7.518,14,7.267,14,7
			s-0.104-0.518-0.293-0.707c-0.378-0.379-1.037-0.378-1.414-0.001L6.585,12z"/>
	</g>
</g>
</svg>
